Adwaita++-Light/panel/16/enpass-status.svg

<svg height="16" width="16" xmlns="http://www.w3.org/2000/svg">
  <path d="m1.8536558 1c-.5007071 0-1.04568012.2308365-1.3984375.5742188-.3527574.343382-.5112454 1.1264203-.4375 1.5697812l1.6933594 9.783734c.1061034.637895.3634189 1.190658.6816406 1.542969.3182216.352311.6555428.529297 1.15625.529297h7.9023437c.500707 0 .839982-.176986 1.158203-.529297.318222-.352311.573585-.905075.679687-1.542969l1.69336-9.783734c.07375-.4433608-.08279-1.2263993-.435547-1.5697812-.352756-.3433821-.899686-.5742188-1.400391-.5742188zm5.6464844 3c1.380712 0 2.4999998 1.119288 2.4999998 2.5-.0006138.786206-.3710348 1.526324-.9999998 1.998047v2.501953c0 .554-.446 1-1 1h-1c-.5539996 0-1-.446-1-1v-2.503906c-.628416-.471311-.998772-1.210576-1-1.996094 0-1.380712 1.1192884-2.5 2.5-2.5z" fill="#444"/>
</svg>

<svg xmlns="http://www.w3.org/2000/svg" width="16" height="16" version="1.1">
 <defs>
  <style id="current-color-scheme" type="text/css">
   .ColorScheme-Text { color:#444444; } .ColorScheme-Highlight { color:#4285f4; }
  </style>
 </defs>
 <path style="fill:currentColor" class="ColorScheme-Text" d="M 1.8536558,1 C 1.3529487,1 0.80797568,1.2308365 0.4552183,1.5742188 0.1024609,1.9176008 -0.0560271,2.7006391 0.0177183,3.144 l 1.6933594,9.783734 c 0.1061034,0.637895 0.3634189,1.190658 0.6816406,1.542969 C 2.7109399,14.823014 3.0482611,15 3.5489683,15 h 7.9023437 c 0.500707,0 0.839982,-0.176986 1.158203,-0.529297 0.318222,-0.352311 0.573585,-0.905075 0.679687,-1.542969 L 14.982562,3.144 C 15.056312,2.7006392 14.899772,1.9176007 14.547015,1.5742188 14.194259,1.2308367 13.647329,1 13.146624,1 Z M 7.5001402,4 C 8.8808522,4 10.00014,5.119288 10.00014,6.5 9.9995262,7.286206 9.6291052,8.026324 9.0001402,8.498047 V 11 c 0,0.554 -0.446,1 -1,1 h -1 c -0.5539996,0 -1,-0.446 -1,-1 V 8.496094 c -0.628416,-0.471311 -0.998772,-1.210576 -1,-1.996094 0,-1.380712 1.1192884,-2.5 2.5,-2.5 z"/>
</svg>
